logos/MusicBrainz/SVG/MusicBrainz_logo_tiny.svg

<?xml version="1.0" encoding="UTF-8"?><svg id="a" xmlns="http://www.w3.org/2000/svg" viewBox="0 0 75 30"><defs><style>.b{fill:#eb743b;}.c{fill:#ba478f;}</style></defs><g><polygon class="c" points="14 1 2 8 2 22 14 29 14 1"/><polygon class="b" points="15 1 27 8 27 22 15 29 15 1"/></g><g><path class="c" d="M37.74,5.24l4.94,13.32,4.9-13.32h6.5V25h-4.94v-4l.51-10.38-5.34,14.39h-3.27l-5.33-14.33,.51,10.33v4h-4.94V5.24h6.46Z"/><path class="b" d="M57.46,25V5.24h7.63c2.63,0,4.66,.47,6.07,1.4,1.41,.93,2.12,2.29,2.12,4.07,0,1-.26,1.87-.77,2.62-.51,.75-1.25,1.31-2.21,1.66,1.11,.28,1.96,.82,2.54,1.61,.59,.79,.88,1.71,.88,2.74,0,1.95-.67,3.38-2.02,4.29s-3.3,1.36-5.87,1.36h-8.38Zm4.92-11.54h3.02c1.98,0,2.97-.69,2.97-2.08,0-.79-.24-1.36-.72-1.7s-1.21-.5-2.2-.5h-3.07v4.27Zm0,3.34v4.24h3.46c.95,0,1.69-.19,2.21-.56,.52-.38,.78-.87,.78-1.48,0-1.42-.87-2.15-2.6-2.2h-3.85Z"/></g></svg>

<svg id="Layer_1" data-name="Layer 1" xmlns="http://www.w3.org/2000/svg" viewBox="0 0 75 30"><defs><style>.cls-1{fill:#ba478f;}.cls-2{fill:#eb743b;}</style></defs><polygon class="cls-1" points="14 1 2 8 2 22 14 29 14 1"/><polygon class="cls-2" points="15 1 27 8 27 22 15 29 15 1"/><path class="cls-1" d="M37.74,5.24l4.94,13.31,4.9-13.31h6.5V25H49.14V21l.51-10.39L44.31,25H41L35.71,10.67,36.22,21v4H31.28V5.24Z"/><path class="cls-2" d="M57.46,25V5.24h7.63a11,11,0,0,1,6.07,1.4,4.56,4.56,0,0,1,2.12,4.07,4.49,4.49,0,0,1-.77,2.62A4.37,4.37,0,0,1,70.3,15a4.38,4.38,0,0,1,2.54,1.61,4.44,4.44,0,0,1,.88,2.74,4.82,4.82,0,0,1-2,4.3A10.52,10.52,0,0,1,65.83,25Zm4.92-11.54h3q3,0,3-2.07a1.93,1.93,0,0,0-.72-1.7,3.89,3.89,0,0,0-2.19-.5H62.38Zm0,3.35v4.24h3.45A3.76,3.76,0,0,0,68,20.49,1.76,1.76,0,0,0,68.82,19c0-1.42-.86-2.15-2.59-2.19Z"/></svg>
